X:133
T:Rhuad Teirw'r Dyffryn - The Roaring of the Bulls of the Valley
M:2/4
L:1/16
Q:100
C:Trad. arr. J.T.
R:Processional
N:Slightly compressed
K:G
EF | G2GA F2FG | E2EF GFGE | F2F2 E2E2 | ^D2B2 BAG
F | G2GA G2F2 | E2EF G2A2 | B2Bc BAGF | E6 :
|| GA | B2Bc A2AB | G2G2 GABc | d2B2 c2A2 | B2G2
GABc | B2Bc A2AB | G2G2 GABc | d2B2 c2A2 | B4
BAGF | G2GA F2FG | E2EF GFGE | F2F2 E2E2 | ^D2B2
BAGF | G2GA G2F2 | E2EF G2A2 | B2Bc BAGF | E6
||
